X:1
T:60 Lessons for 2 Guitars, Op.168 - Joseph Küffner (1776 - 1856)
T:Leçon No.45
T:60 Lessons for 2 Guitars, Op.168 "à l'usage des commençants"
T:Joseph Küffner (1776 - 1856)
%%score { ( 1 2 ) ( 3 4 ) } { ( 5 6 ) ( 7 8 ) }
L:1/8
Q:1/4=100
M:2/2
K:A
V:1 treble-8 nm="Classical Guitar"
V:2 treble-8 
V:3 tab stafflines=6 strings=E2,A2,D3,G3,B3,E4 nostems nm="Guitare classique [Tablature]"
V:4 tab stafflines=6 strings=E2,A2,D3,G3,B3,E4 nostems 
V:5 treble-8 nm="Guitare classique"
V:6 treble-8 
V:7 tab stafflines=6 strings=E2,A2,D3,G3,B3,E4 nostems nm="Guitare classique [Tablature]"
V:8 tab stafflines=6 strings=E2,A2,D3,G3,B3,E4 nostems 
V:1
"_""^Marche""^Moderato" [Ac]2 [Ac]>[Ac] [Ac](d/c/) .B.c | %1
 .[GBe].[Bd] !>![GB]2 .[GBe].[Bd] !>![GB]2 | [Ac]2 [Ac]>[Ac] [Ac](d/c/) .B.A | %3
 [EG][FA] !>![GB]2 [EG][FA] !>![GB]2 | [Ac]2 [Ac]>[Ac] [Ac](d/c/) .B.c | %5
 [GBe][Bd] !>![GB]2 .[GBe].[Bd] !>![GB]2 | .A/.B/.c/.d/ .e/.f/.g/.a/ .g/.f/.e/.d/ .c/.B/.A/.G/ | %7
 !>![E,GB]4 [A,A]2 z2 ::"_" [GB]2 [GB]>[GB] [GB](c/B/) .A.B | %9
 .[Ac].[Bd] !>![ce]2 .[Ac].[Bd] !>![ce]2 | [GB]2 [GB]>[GB] [GB](c/B/) .A.B | %11
 .[Ac].[Bd] !>![ce]2 .[Ac].[Bd] !>![ce]2 |"_" [Ac]2 [Ac]>[Ac] [Ac](d/c/) .B.c | %13
 [GBe][Bd] !>![GB]2 .[GBe].[Bd] !>![GB]2 | .A/.B/.c/.d/ .e/.f/.g/.a/ .g/.f/.e/.d/ .c/.B/.A/.G/ | %15
 !>![E,GB]4 [A,A]2 z2 :| %16
V:2
 A,2 z2 A, z z2 | E,2 z2 E,2 z2 | A,2 z2 A, z z2 | E,2 z2 E,2 z2 | A,2 z2 A, z z2 | E,2 z2 E,2 z2 | %6
 A,2 z2 z4 | x8 :: E,2 z2 E, z z2 | A,2 z2 A,2 z2 | E,2 z2 E, z z2 | A,2 z2 A,2 z2 | %12
 A,2 z2 A, z z2 | E,2 z2 E,2 z2 | A,2 z2 z4 | x8 :| %16
V:3
 [!3!A,!2!C]2 [!3!A,!2!C]3/2 [!3!A,!2!C]/ [!3!A,!2!C] (!2!D/ !2!C/) !2!B, !2!C | %1
 [!3!G,!2!B,!1!E] [!3!B,!2!D] [!3!G,!2!B,]2 [!3!G,!2!B,!1!E] [!3!B,!2!D] [!3!G,!2!B,]2 | %2
 [!3!A,!2!C]2 [!3!A,!2!C]3/2 [!3!A,!2!C]/ [!3!A,!2!C] (!2!D/ !2!C/) !2!B, !3!A, | %3
 [!4!E,!3!G,] [!4!F,!3!A,] [!3!G,!2!B,]2 [!4!E,!3!G,] [!4!F,!3!A,] [!3!G,!2!B,]2 | %4
 [!3!A,!2!C]2 [!3!A,!2!C]3/2 [!3!A,!2!C]/ [!3!A,!2!C] (!2!D/ !2!C/) !2!B, !2!C | %5
 [!3!G,!2!B,!1!E] [!3!B,!2!D] [!3!G,!2!B,]2 [!3!G,!2!B,!1!E] [!3!B,!2!D] [!3!G,!2!B,]2 | %6
 !3!A,/ !2!B,/ !2!C/ !2!D/ !1!E/ !1!F/ !1!G/ !1!A/ !1!G/ !1!F/ !1!E/ !2!D/ !2!C/ !2!B,/ !3!A,/ !3!G,/ | %7
 [!6!E,,!3!G,!2!B,]4 [!5!A,,!3!A,]2 x2 :: %8
 [!3!G,!2!B,]2 [!3!G,!2!B,]3/2 [!3!G,!2!B,]/ [!3!G,!2!B,] (!2!C/ !2!B,/) !3!A, !2!B, | %9
 [!3!A,!2!C] [!3!B,!2!D] [!2!C!1!E]2 [!3!A,!2!C] [!3!B,!2!D] [!2!C!1!E]2 | %10
 [!3!G,!2!B,]2 [!3!G,!2!B,]3/2 [!3!G,!2!B,]/ [!3!G,!2!B,] (!2!C/ !2!B,/) !3!A, !2!B, | %11
 [!3!A,!2!C] [!3!B,!2!D] [!2!C!1!E]2 [!3!A,!2!C] [!3!B,!2!D] [!2!C!1!E]2 | %12
 [!3!A,!2!C]2 [!3!A,!2!C]3/2 [!3!A,!2!C]/ [!3!A,!2!C] (!2!D/ !2!C/) !2!B, !2!C | %13
 [!3!G,!2!B,!1!E] [!3!B,!2!D] [!3!G,!2!B,]2 [!3!G,!2!B,!1!E] [!3!B,!2!D] [!3!G,!2!B,]2 | %14
 !3!A,/ !2!B,/ !2!C/ !2!D/ !1!E/ !1!F/ !1!G/ !1!A/ !1!G/ !1!F/ !1!E/ !2!D/ !2!C/ !2!B,/ !3!A,/ !3!G,/ | %15
 [!6!E,,!3!G,!2!B,]4 [!5!A,,!3!A,]2 x2 :| %16
V:4
 !5!A,,2 x2 !5!A,, x x2 | !6!E,,2 x2 !6!E,,2 x2 | !5!A,,2 x2 !5!A,, x x2 | !6!E,,2 x2 !6!E,,2 x2 | %4
 !5!A,,2 x2 !5!A,, x x2 | !6!E,,2 x2 !6!E,,2 x2 | !5!A,,2 x2 x4 | x8 :: !6!E,,2 x2 !6!E,, x x2 | %9
 !5!A,,2 x2 !5!A,,2 x2 | !6!E,,2 x2 !6!E,, x x2 | !5!A,,2 x2 !5!A,,2 x2 | !5!A,,2 x2 !5!A,, x x2 | %13
 !6!E,,2 x2 !6!E,,2 x2 | !5!A,,2 x2 x4 | x8 :| %16
V:5
"_" A,AA,A A(B/A/) .G.A | z EeE z EeE | A,AA,A A(B/A/) .G.F | z EeE z EeE | A,AA,A A(B/A/) .G.A | %5
 z EeE z EeE | !arpeggio![A,Ace]2 z2 !arpeggio![E,Gde]2 z2 | z/ E/G/E/ d/E/G/E/ [A,EAc]2 z2 :: %8
"_" E,EE,E z (A/G/) .F.G | z AaA z AaA | E,EE,E z (A/G/) .F.G | z AaA z AaA | %12
"_" A,AA,A A(B/A/) .G.A | z EeE z EeE | !arpeggio![A,Ace]2 z2 !arpeggio![E,Gde]2 z2 | %15
 z/ E/G/E/ d/E/G/E/ [A,EAc]2 z2 :| %16
V:6
 x4 A,4 | E,4 E,4 | x4 A,4 | E,4 E,4 | x4 A,4 | E,4 E,4 | x8 | E,4 x4 :: x4 E,4 | A,4 A,4 | %10
 x4 E,4 | A,4 A,4 | x4 A,4 | E,4 E,4 | x8 | E,4 x4 :| %16
V:7
 !5!A,, !3!A, !5!A,, !3!A, !3!A, (!3!B,/ !3!A,/) !3!G, !3!A, | %1
 x !4!E, !1!E !4!E, x !4!E, !1!E !4!E, | %2
 !5!A,, !3!A, !5!A,, !3!A, !3!A, (!3!B,/ !3!A,/) !3!G, !4!F, | %3
 x !4!E, !1!E !4!E, x !4!E, !1!E !4!E, | %4
 !5!A,, !3!A, !5!A,, !3!A, !3!A, (!3!B,/ !3!A,/) !3!G, !3!A, | %5
 x !4!E, !1!E !4!E, x !4!E, !1!E !4!E, | [!5!A,,!3!A,!2!C!1!E]2 x2 [!6!E,,!3!G,!2!D!1!E]2 x2 | %7
 x/ !4!E,/ !3!G,/ !4!E,/ !2!D/ !4!E,/ !3!G,/ !4!E,/ [!5!A,,!4!E,!3!A,!2!C]2 x2 :: %8
 !6!E,, !4!E, !6!E,, !4!E, x (!3!A,/ !3!G,/) !4!F, !3!G, | x !3!A, !1!A !3!A, x !3!A, !1!A !3!A, | %10
 !6!E,, !4!E, !6!E,, !4!E, x (!3!A,/ !3!G,/) !4!F, !3!G, | x !3!A, !1!A !3!A, x !3!A, !1!A !3!A, | %12
 !5!A,, !3!A, !5!A,, !3!A, !3!A, (!3!B,/ !3!A,/) !3!G, !3!A, | %13
 x !4!E, !1!E !4!E, x !4!E, !1!E !4!E, | [!5!A,,!3!A,!2!C!1!E]2 x2 [!6!E,,!3!G,!2!D!1!E]2 x2 | %15
 x/ !4!E,/ !3!G,/ !4!E,/ !2!D/ !4!E,/ !3!G,/ !4!E,/ [!5!A,,!4!E,!3!A,!2!C]2 x2 :| %16
V:8
 x4 !5!A,,4 | !6!E,,4 !6!E,,4 | x4 !5!A,,4 | !6!E,,4 !6!E,,4 | x4 !5!A,,4 | !6!E,,4 !6!E,,4 | x8 | %7
 !6!E,,4 x4 :: x4 !6!E,,4 | !5!A,,4 !5!A,,4 | x4 !6!E,,4 | !5!A,,4 !5!A,,4 | x4 !5!A,,4 | %13
 !6!E,,4 !6!E,,4 | x8 | !6!E,,4 x4 :| %16

